X:3832
L:1/4
M:9/4
K:F
 F,3 F,3 C,3 | F,3 F,3 G,3 | F,3 F,3 B,3 | C,3 C,3 F,3 || c | A3/2 B/ c (d/ c3/2) f e2 c | 
 A3/2 B/ c (d/ c3/2) f g2 c | A3/2 B/ (d/ c3/2) f d2 a | b a g g2 f f2 || e | d c B A G F G A B | 
 A G F D E F G2 B | A B c c d _e d e f | e d c f3/2 g/ e f2 ||

